X: 41
M: C|
L: 1/8
K: D
dfdf ecAc | dBGB AFDA |\
d2AA e2cc | gefd aABc |\
|: A2 |\
dAdA FAFD | BGDG BGdB |\
gefd ecdB | c2ed cBAG |
afdf Bgec | d2f2 d2 H:|

